apps/scalable/gnome-tweak-tool.svg

<svg height="48" viewBox="0 0 48 48" width="48" xmlns="http://www.w3.org/2000/svg" xmlns:xlink="http://www.w3.org/1999/xlink"><linearGradient id="a" gradientUnits="userSpaceOnUse" x1="410.445439049232" x2="410.445439049232" y1="544.123707570166" y2="504.2732340244"><stop offset="0" stop-color="#97a9b1"/><stop offset="1" stop-color="#cfdce1"/></linearGradient><linearGradient id="b" gradientUnits="userSpaceOnUse" x1="350.066473577608" x2="350.066473577608" y1="547.074134049879" y2="499.073994449879"><stop offset="0" stop-color="#3889e9"/><stop offset="1" stop-color="#5ea5fb"/></linearGradient><linearGradient id="c" gradientTransform="matrix(.87505313 0 0 .87501383 387.5705 502.7977)" gradientUnits="userSpaceOnUse" x1="23.526918" x2="24.064453" y1="39.175846" y2="8"><stop offset="0" stop-color="#1d1e1e"/><stop offset="1" stop-color="#44484c"/></linearGradient><g transform="translate(-384.57143 -499.798)"><rect fill-opacity=".666667" height="38.409515" ry="2.6567" width="44" x="386.57144" y="505.09335"/><rect fill="url(#a)" height="38.409515" ry="2.6567" width="44" x="386.57144" y="504.09311"/><circle cx="351.78067" cy="523.07397" fill="url(#b)" r="0"/><path clip-rule="evenodd" d="m24.056641 10c-.52559-.00093-1.053645.026084-1.578125.083984-.40591.0448-.705067.394162-.691407.800782.0456 1.29821-.724518 2.499461-1.917968 2.988281-1.095123.447308-2.502357.150954-3.351563-.677735l-.113281-.113281-.025391-.02539c-.2775-.2775-.72007-.30499-1.03125-.0625-.83911.65832-1.602905 1.413244-2.265625 2.240234-.25058.31166-.222369.758119.056641 1.037109l.027344.025391.148437.148437.011719.013672c.844172.885999 1.099646 2.195668.623047 3.332032-.48331 1.15081-1.678805 1.892578-3.046875 1.892578-.44394-.0143-.760024.28389-.808594.6875-.12314 1.05181-.1235798 2.123234-.005859 3.183594.0163.146838.092122.279641.201171.388671l3.789063 3.789063c-.094418.709628-.42516 1.385197-.976563 1.890625-.299529.27513-.334521.734747-.082031 1.054687.3409.43418.707617.848242 1.097657 1.238282l8.789062 8.789062h20.4375c1.471812 0 2.65625-1.184438 2.65625-2.65625v-13.849609l-12.113281-12.113281c-.35702-.357032-.732347-.6929-1.123047-1.00586-.31913-.25608-.787743-.218489-1.064453.087891-.458182.507408-1.118034.830991-1.810547.947265l-3.798828-3.798828c-.12005-.12005-.279738-.201556-.460938-.222656-.52301-.0605-1.046665-.09225-1.572265-.09375z" fill-opacity=".078431" fill-rule="evenodd" stroke-width="1.152789" transform="translate(384.57143 499.798)"/><path clip-rule="evenodd" d="m408.62807 509.798c-.52559-.00093-1.05364.0261-1.57812.084-.40591.0448-.70507.39416-.69141.80078.0456 1.29821-.72452 2.49946-1.91797 2.98828-1.14449.46748-2.63197.12494-3.46484-.79101-.27527-.30173-.73596-.33781-1.05664-.0879-.83911.65832-1.60291 1.41324-2.26563 2.24023-.2585.32151-.22013.78589.084 1.0625.97446.88241 1.28944 2.2871.7832 3.49414-.48331 1.15081-1.6788 1.89258-3.04687 1.89258-.44394-.0143-.76002.28389-.8086.6875-.12313 1.05181-.12371 2.12323-.006 3.18359.0439.39528.51676.68946.91797.68946 1.21919-.0312 2.38789.72308 2.87891 1.91796.48948 1.1933.1745 2.58309-.7832 3.46094-.29953.27513-.33449.73475-.082 1.05469.65055.82855 1.39697 1.58201 2.21484 2.24023.32078.25848.78638.2243 1.06445-.082.83766-.9265 2.33647-1.2694 3.49024-.78515 1.20846.50547 1.96895 1.7272 1.89453 3.03906-.0243.41202.27856.76933.6875.81641.53498.0624 1.07165.0937 1.61133.0937.51227 0 1.02677-.0289 1.53906-.0859.40602-.0448.70504-.39343.69141-.80078-.047-1.29748.7241-2.49833 1.91601-2.98633 1.15219-.47058 2.63384-.12401 3.4668.79101.27681.30109.73421.33497 1.05664.0859.83757-.65677 1.59975-1.40901 2.26562-2.23828.25838-.32078.22159-.78795-.084-1.06445-.97446-.88243-1.29139-2.28597-.78515-3.49219.47593-1.13549 1.6276-1.89843 2.86523-1.89843l.17383.006c.40143.0327.76971-.27775.81836-.6875.12336-1.05276.12495-2.12323.006-3.1836h.002c-.0443-.3936-.50355-.6875-.90039-.6875-1.28306 0-2.42289-.75487-2.90039-1.91992-.4878-1.19331-.17304-2.58386.7832-3.46094.30101-.27515.33829-.7367.0859-1.05664-.65669-.83387-1.4038-1.58743-2.21875-2.24023-.31913-.25608-.78774-.21848-1.06445.0879-.83453.92419-2.33387 1.26649-3.49219.7832-1.20552-.50709-1.965-1.72795-1.89062-3.03906.0245-.41185-.27691-.77054-.6875-.81836-.52307-.0605-1.04673-.0923-1.57233-.0938zm4.85352 6.43359c3.06849 0-.19209 4.36914-1.91797 4.36914-1.72613 0-1.1504-4.36914 1.91797-4.36914zm-4.89453.54493c1.72737-.22413.71789 3.3393-.20118 3.2832-.91944-.0561-1.52559-3.05908.20118-3.2832zm-2.89454 1.18164c1.13585-.12056 1.05372 2.69306.32422 2.84179-.77751.15889-1.95625-2.20463-.56836-2.77734.0867-.0358.16842-.0564.24414-.0644zm-2.15625 1.84961c.8447.0284 1.21063 2.21503.63868 2.46679-.65366.2876-2.13836-1.56828-1.02735-2.33594.13894-.0959.268-.13491.38867-.13085zm6.34571 1.41796c1.42911.0242 2.58342.49391 2.73828 1.41407.49751 2.95613-7.04903 4.03544-4.20703 6.19922.89275.67972 1.80407.15985 1.66601-.89454v-.002c-.11524-.87961 3.09103-1.41142 2.83985-.082-.32889 1.74334-2.0853 3.11915-3.60938 3.11915-3.09805 0-6.0686-3.60242-5.48828-6.19922.53583-2.39962 3.67869-3.59499 6.06055-3.55469z" fill="url(#c)" fill-rule="evenodd" stroke-width="1.152789"/></g></svg>

<?xml version="1.0" encoding="UTF-8" standalone="no"?>
<!-- Created with Inkscape (http://www.inkscape.org/) -->

<svg
   xmlns:osb="http://www.openswatchbook.org/uri/2009/osb"
   xmlns:dc="http://purl.org/dc/elements/1.1/"
   xmlns:cc="http://creativecommons.org/ns#"
   xmlns:rdf="http://www.w3.org/1999/02/22-rdf-syntax-ns#"
   xmlns:svg="http://www.w3.org/2000/svg"
   xmlns="http://www.w3.org/2000/svg"
   xmlns:xlink="http://www.w3.org/1999/xlink"
   xmlns:sodipodi="http://sodipodi.sourceforge.net/DTD/sodipodi-0.dtd"
   xmlns:inkscape="http://www.inkscape.org/namespaces/inkscape"
   width="48"
   height="48"
   id="svg5453"
   version="1.1"
   inkscape:version="0.92.1 r15371"
   sodipodi:docname="gnome-tweak-tool.svg"
   viewBox="0 0 48 48">
  <sodipodi:namedview
     id="base"
     pagecolor="#5a5a5a"
     bordercolor="#666666"
     borderopacity="1.0"
     inkscape:pageopacity="0"
     inkscape:pageshadow="2"
     inkscape:zoom="6.0572305"
     inkscape:cx="9.4703305"
     inkscape:cy="32.431248"
     inkscape:document-units="px"
     inkscape:current-layer="layer1"
     showgrid="false"
     fit-margin-top="0"
     fit-margin-left="0"
     fit-margin-right="0"
     fit-margin-bottom="0"
     inkscape:window-width="1366"
     inkscape:window-height="642"
     inkscape:window-x="0"
     inkscape:window-y="33"
     inkscape:window-maximized="1"
     inkscape:showpageshadow="false"
     borderlayer="true"
     showguides="false"
     showborder="true"
     inkscape:pagecheckerboard="true">
    <sodipodi:guide
       inkscape:locked="false"
       id="guide4146"
       orientation="4,0"
       position="1.1650391e-05,47.999996" />
    <sodipodi:guide
       inkscape:locked="false"
       id="guide4148"
       orientation="0,48"
       position="1.1650391e-05,43.999996" />
    <sodipodi:guide
       inkscape:locked="false"
       id="guide4150"
       orientation="-4,0"
       position="48.000012,61" />
    <sodipodi:guide
       inkscape:locked="false"
       id="guide4152"
       orientation="0,-48"
       position="48.000012,47.999996" />
    <sodipodi:guide
       inkscape:locked="false"
       id="guide4154"
       orientation="4,0"
       position="1.1650391e-05,4.0000264" />
    <sodipodi:guide
       inkscape:locked="false"
       id="guide4156"
       orientation="0,48"
       position="1.1650391e-05,2.6367188e-05" />
    <sodipodi:guide
       inkscape:locked="false"
       id="guide4158"
       orientation="-4,0"
       position="48.000012,2.6367188e-05" />
    <sodipodi:guide
       inkscape:locked="false"
       id="guide4160"
       orientation="0,-48"
       position="48.000012,4.0000264" />
    <sodipodi:guide
       inkscape:locked="false"
       id="guide4162"
       orientation="0,-4"
       position="48.000012,48.000026" />
    <sodipodi:guide
       inkscape:locked="false"
       id="guide4164"
       orientation="48,0"
       position="44.000012,48.000026" />
    <sodipodi:guide
       inkscape:locked="false"
       id="guide4166"
       orientation="0,4"
       position="44.000012,2.6367188e-05" />
    <sodipodi:guide
       inkscape:locked="false"
       id="guide4168"
       orientation="-48,0"
       position="48.000012,2.6367188e-05" />
    <sodipodi:guide
       inkscape:locked="false"
       id="guide4170"
       orientation="0,-4"
       position="4.0000422,48.000026" />
    <sodipodi:guide
       inkscape:locked="false"
       id="guide4172"
       orientation="48,0"
       position="4.2167969e-05,48.000026" />
    <sodipodi:guide
       inkscape:locked="false"
       id="guide4174"
       orientation="0,4"
       position="4.2167969e-05,2.6367188e-05" />
  </sodipodi:namedview>
  <defs
     id="defs5455">
    <linearGradient
       id="linearGradient4180"
       inkscape:collect="always">
      <stop
         id="stop4182"
         offset="0"
         style="stop-color:#97a9b1;stop-opacity:1" />
      <stop
         id="stop4184"
         offset="1"
         style="stop-color:#cfdce1;stop-opacity:1" />
    </linearGradient>
    <linearGradient
       gradientTransform="matrix(1.0218078,0,0,1.0218078,-69.366321,-10.511492)"
       gradientUnits="userSpaceOnUse"
       y2="503.798"
       x2="469.57144"
       y1="542.79797"
       x1="469.57144"
       id="linearGradient4186-0"
       xlink:href="#linearGradient4180"
       inkscape:collect="always" />
    <clipPath
       clipPathUnits="userSpaceOnUse"
       id="clipPath6664">
      <rect
         style="opacity:1;fill:url(#linearGradient6668);fill-opacity:1;stroke:none;stroke-width:2;stroke-linecap:round;stroke-linejoin:round;stroke-miterlimit:4;stroke-dasharray:none;stroke-opacity:1"
         id="rect6666"
         width="48"
         height="41.901291"
         x="384.58743"
         y="502.9097"
         ry="2.8982184" />
    </clipPath>
    <linearGradient
       inkscape:collect="always"
       xlink:href="#linearGradient4180"
       id="linearGradient6668"
       gradientUnits="userSpaceOnUse"
       gradientTransform="matrix(1.1146994,0,0,1.1146994,-112.79919,-58.47716)"
       x1="469.57144"
       y1="542.79797"
       x2="469.57144"
       y2="503.798" />
    <linearGradient
       id="linearGradient4232">
      <stop
         id="stop4234-0"
         offset="0"
         style="stop-color:#3889e9;stop-opacity:1" />
      <stop
         id="stop4236"
         offset="1"
         style="stop-color:#5ea5fb;stop-opacity:1" />
    </linearGradient>
    <style
       type="text/css"
       id="current-color-scheme">.ColorScheme-Text {
        color:#31363b;
      }
      .ColorScheme-Background{
        color:#eff0f1;
      }
      .ColorScheme-ViewText {
        color:#31363b;
      }
      .ColorScheme-ViewBackground{
        color:#fcfcfc;
      }
      .ColorScheme-ViewHover {
        color:#3daee9;
      }
      .ColorScheme-ViewFocus{
        color:#3daee9;
      }
      .ColorScheme-ButtonText {
        color:#31363b;
      }
      .ColorScheme-ButtonBackground{
        color:#eff0f1;
      }
      .ColorScheme-ButtonHover {
        color:#3daee9;
      }
      .ColorScheme-ButtonFocus{
        color:#3daee9;
      }</style>
    <style
       type="text/css"
       id="current-color-scheme-8">.ColorScheme-Text {
        color:#31363b;
      }
      .ColorScheme-Background{
        color:#eff0f1;
      }
      .ColorScheme-ViewText {
        color:#31363b;
      }
      .ColorScheme-ViewBackground{
        color:#fcfcfc;
      }
      .ColorScheme-ViewHover {
        color:#3daee9;
      }
      .ColorScheme-ViewFocus{
        color:#3daee9;
      }
      .ColorScheme-ButtonText {
        color:#31363b;
      }
      .ColorScheme-ButtonBackground{
        color:#eff0f1;
      }
      .ColorScheme-ButtonHover {
        color:#3daee9;
      }
      .ColorScheme-ButtonFocus{
        color:#3daee9;
      }</style>
    <style
       type="text/css"
       id="current-color-scheme-7">.ColorScheme-Text {
        color:#31363b;
      }
      .ColorScheme-Background{
        color:#eff0f1;
      }
      .ColorScheme-ViewText {
        color:#31363b;
      }
      .ColorScheme-ViewBackground{
        color:#fcfcfc;
      }
      .ColorScheme-ViewHover {
        color:#3daee9;
      }
      .ColorScheme-ViewFocus{
        color:#3daee9;
      }
      .ColorScheme-ButtonText {
        color:#31363b;
      }
      .ColorScheme-ButtonBackground{
        color:#eff0f1;
      }
      .ColorScheme-ButtonHover {
        color:#3daee9;
      }
      .ColorScheme-ButtonFocus{
        color:#3daee9;
      }</style>
    <linearGradient
       osb:paint="gradient"
       id="linearGradient4207">
      <stop
         id="stop3371"
         offset="0"
         style="stop-color:#3498db;stop-opacity:1;" />
      <stop
         id="stop3373"
         offset="1"
         style="stop-color:#3498db;stop-opacity:0;" />
    </linearGradient>
    <linearGradient
       id="linearGradient8311-06">
      <stop
         offset="0"
         style="stop-color:#a9a3d4;stop-opacity:1"
         id="stop8313-6" />
      <stop
         id="stop4462"
         style="stop-color:#87baff;stop-opacity:1"
         offset="0.47001833" />
      <stop
         offset="1"
         style="stop-color:#89ec85;stop-opacity:1"
         id="stop8315-2" />
    </linearGradient>
    <linearGradient
       gradientTransform="matrix(1.7142907,0,0,1.7142907,-334.91513,-388.58225)"
       gradientUnits="userSpaceOnUse"
       y2="517.79797"
       x2="399.57144"
       y1="545.79797"
       x1="399.57144"
       id="linearGradient3426-3"
       xlink:href="#linearGradient4232"
       inkscape:collect="always" />
    <linearGradient
       inkscape:collect="always"
       id="linearGradient4159">
      <stop
         style="stop-color:#1d1e1e;stop-opacity:1"
         offset="0"
         id="stop4161" />
      <stop
         style="stop-color:#44484c;stop-opacity:1"
         offset="1"
         id="stop4163" />
    </linearGradient>
    <clipPath
       id="clipPath6664-7"
       clipPathUnits="userSpaceOnUse">
      <rect
         ry="2.8982184"
         y="502.9097"
         x="384.58743"
         height="41.901291"
         width="48"
         id="rect6666-5"
         style="opacity:1;fill:url(#linearGradient6668);fill-opacity:1;stroke:none;stroke-width:2;stroke-linecap:round;stroke-linejoin:round;stroke-miterlimit:4;stroke-dasharray:none;stroke-opacity:1" />
    </clipPath>
    <linearGradient
       gradientTransform="matrix(0.87505313,0,0,0.87501383,387.5705,502.7977)"
       gradientUnits="userSpaceOnUse"
       y2="8"
       x2="24.064453"
       y1="39.175846"
       x1="23.526918"
       id="linearGradient6311"
       xlink:href="#linearGradient4159"
       inkscape:collect="always" />
  </defs>
  <metadata
     id="metadata5458">
    <rdf:RDF>
      <cc:Work
         rdf:about="">
        <dc:format>image/svg+xml</dc:format>
        <dc:type
           rdf:resource="http://purl.org/dc/dcmitype/StillImage" />
        <dc:title></dc:title>
      </cc:Work>
    </rdf:RDF>
  </metadata>
  <g
     transform="translate(-384.57143,-499.798)"
     id="layer1"
     inkscape:groupmode="layer"
     inkscape:label="Layer 1">
    <rect
       ry="2.6567001"
       y="505.09335"
       x="386.57144"
       height="38.409515"
       width="44"
       id="rect4525"
       style="opacity:1;fill:#000000;fill-opacity:0.66666667;stroke:none;stroke-width:1.83333337;stroke-linecap:round;stroke-linejoin:round;stroke-miterlimit:4;stroke-dasharray:none;stroke-opacity:1" />
    <rect
       style="opacity:1;fill:url(#linearGradient4186-0);fill-opacity:1;stroke:none;stroke-width:1.83333337;stroke-linecap:round;stroke-linejoin:round;stroke-miterlimit:4;stroke-dasharray:none;stroke-opacity:1"
       id="rect4178-2"
       width="44"
       height="38.409515"
       x="386.57144"
       y="504.09311"
       ry="2.6567001" />
    <g
       inkscape:label="Layer 1"
       id="layer1-39"
       transform="matrix(1.6883073,0,0,1.6883073,-324.489,-374.07387)" />
    <circle
       style="opacity:1;fill:url(#linearGradient3426-3);fill-opacity:1;stroke:none;stroke-width:1.420946;stroke-miterlimit:4;stroke-dasharray:none;stroke-dashoffset:0;stroke-opacity:1"
       id="ellipse4233-5"
       cx="351.78067"
       cy="523.07397"
       r="0" />
    <path
       style="clip-rule:evenodd;fill:#000000;fill-opacity:0.07843137;fill-rule:evenodd;stroke-width:1.15278864;stroke-miterlimit:4;stroke-dasharray:none"
       d="M 24.056641 10 C 23.531051 9.99907 23.002996 10.026084 22.478516 10.083984 C 22.072606 10.128784 21.773449 10.478146 21.787109 10.884766 C 21.832709 12.182976 21.062591 13.384227 19.869141 13.873047 C 18.774018 14.320355 17.366784 14.024001 16.517578 13.195312 L 16.404297 13.082031 L 16.378906 13.056641 C 16.101406 12.779141 15.658836 12.751651 15.347656 12.994141 C 14.508546 13.652461 13.744751 14.407385 13.082031 15.234375 C 12.831451 15.546035 12.859662 15.992494 13.138672 16.271484 L 13.166016 16.296875 L 13.314453 16.445312 L 13.326172 16.458984 C 14.170344 17.344983 14.425818 18.654652 13.949219 19.791016 C 13.465909 20.941826 12.270414 21.683594 10.902344 21.683594 C 10.458404 21.669294 10.14232 21.967484 10.09375 22.371094 C 9.97061 23.422904 9.9701702 24.494328 10.087891 25.554688 C 10.104191 25.701526 10.180013 25.834329 10.289062 25.943359 L 14.078125 29.732422 C 13.983707 30.44205 13.652965 31.117619 13.101562 31.623047 C 12.802033 31.898177 12.767041 32.357794 13.019531 32.677734 C 13.360431 33.111914 13.727148 33.525976 14.117188 33.916016 L 22.90625 42.705078 L 43.34375 42.705078 C 44.815562 42.705078 46 41.52064 46 40.048828 L 46 26.199219 L 33.886719 14.085938 C 33.529699 13.728906 33.154372 13.393038 32.763672 13.080078 C 32.444542 12.823998 31.975929 12.861589 31.699219 13.167969 C 31.241037 13.675377 30.581185 13.99896 29.888672 14.115234 L 26.089844 10.316406 C 25.969794 10.196356 25.810106 10.11485 25.628906 10.09375 C 25.105896 10.03325 24.582241 10.0015 24.056641 10 z "
       transform="translate(384.57143,499.798)"
       id="path6393" />
    <path
       inkscape:connector-curvature="0"
       style="clip-rule:evenodd;opacity:1;fill:url(#linearGradient6311);fill-opacity:1;fill-rule:evenodd;stroke-width:1.15278864;stroke-miterlimit:4;stroke-dasharray:none"
       d="m 408.62807,509.798 c -0.52559,-9.3e-4 -1.05364,0.0261 -1.57812,0.084 -0.40591,0.0448 -0.70507,0.39416 -0.69141,0.80078 0.0456,1.29821 -0.72452,2.49946 -1.91797,2.98828 -1.14449,0.46748 -2.63197,0.12494 -3.46484,-0.79101 -0.27527,-0.30173 -0.73596,-0.33781 -1.05664,-0.0879 -0.83911,0.65832 -1.60291,1.41324 -2.26563,2.24023 -0.2585,0.32151 -0.22013,0.78589 0.084,1.0625 0.97446,0.88241 1.28944,2.2871 0.7832,3.49414 -0.48331,1.15081 -1.6788,1.89258 -3.04687,1.89258 -0.44394,-0.0143 -0.76002,0.28389 -0.8086,0.6875 -0.12313,1.05181 -0.12371,2.12323 -0.006,3.18359 0.0439,0.39528 0.51676,0.68946 0.91797,0.68946 1.21919,-0.0312 2.38789,0.72308 2.87891,1.91796 0.48948,1.1933 0.1745,2.58309 -0.7832,3.46094 -0.29953,0.27513 -0.33449,0.73475 -0.082,1.05469 0.65055,0.82855 1.39697,1.58201 2.21484,2.24023 0.32078,0.25848 0.78638,0.2243 1.06445,-0.082 0.83766,-0.9265 2.33647,-1.2694 3.49024,-0.78515 1.20846,0.50547 1.96895,1.7272 1.89453,3.03906 -0.0243,0.41202 0.27856,0.76933 0.6875,0.81641 0.53498,0.0624 1.07165,0.0937 1.61133,0.0937 0.51227,0 1.02677,-0.0289 1.53906,-0.0859 0.40602,-0.0448 0.70504,-0.39343 0.69141,-0.80078 -0.047,-1.29748 0.7241,-2.49833 1.91601,-2.98633 1.15219,-0.47058 2.63384,-0.12401 3.4668,0.79101 0.27681,0.30109 0.73421,0.33497 1.05664,0.0859 0.83757,-0.65677 1.59975,-1.40901 2.26562,-2.23828 0.25838,-0.32078 0.22159,-0.78795 -0.084,-1.06445 -0.97446,-0.88243 -1.29139,-2.28597 -0.78515,-3.49219 0.47593,-1.13549 1.6276,-1.89843 2.86523,-1.89843 l 0.17383,0.006 c 0.40143,0.0327 0.76971,-0.27775 0.81836,-0.6875 0.12336,-1.05276 0.12495,-2.12323 0.006,-3.1836 h 0.002 c -0.0443,-0.3936 -0.50355,-0.6875 -0.90039,-0.6875 -1.28306,0 -2.42289,-0.75487 -2.90039,-1.91992 -0.4878,-1.19331 -0.17304,-2.58386 0.7832,-3.46094 0.30101,-0.27515 0.33829,-0.7367 0.0859,-1.05664 -0.65669,-0.83387 -1.4038,-1.58743 -2.21875,-2.24023 -0.31913,-0.25608 -0.78774,-0.21848 -1.06445,0.0879 -0.83453,0.92419 -2.33387,1.26649 -3.49219,0.7832 -1.20552,-0.50709 -1.965,-1.72795 -1.89062,-3.03906 0.0245,-0.41185 -0.27691,-0.77054 -0.6875,-0.81836 -0.52307,-0.0605 -1.04673,-0.0923 -1.57233,-0.0938 z m 4.85352,6.43359 c 3.06849,0 -0.19209,4.36914 -1.91797,4.36914 -1.72613,0 -1.1504,-4.36914 1.91797,-4.36914 z m -4.89453,0.54493 c 1.72737,-0.22413 0.71789,3.3393 -0.20118,3.2832 -0.91944,-0.0561 -1.52559,-3.05908 0.20118,-3.2832 z m -2.89454,1.18164 c 1.13585,-0.12056 1.05372,2.69306 0.32422,2.84179 -0.77751,0.15889 -1.95625,-2.20463 -0.56836,-2.77734 0.0867,-0.0358 0.16842,-0.0564 0.24414,-0.0644 z m -2.15625,1.84961 c 0.8447,0.0284 1.21063,2.21503 0.63868,2.46679 -0.65366,0.2876 -2.13836,-1.56828 -1.02735,-2.33594 0.13894,-0.0959 0.268,-0.13491 0.38867,-0.13085 z m 6.34571,1.41796 c 1.42911,0.0242 2.58342,0.49391 2.73828,1.41407 0.49751,2.95613 -7.04903,4.03544 -4.20703,6.19922 0.89275,0.67972 1.80407,0.15985 1.66601,-0.89454 v -0.002 c -0.11524,-0.87961 3.09103,-1.41142 2.83985,-0.082 -0.32889,1.74334 -2.0853,3.11915 -3.60938,3.11915 -3.09805,0 -6.0686,-3.60242 -5.48828,-6.19922 0.53583,-2.39962 3.67869,-3.59499 6.06055,-3.55469 z"
       id="path6323" />
  </g>
  <style
     id="style26"
     type="text/css">
	.specularity {opacity:0.5;}
	.low-specularity {opacity:0.25;}
	.full-specularity {opacity:1;}
	.black {fill:#000000;}
	.white {fill:#ffffff;}
	.outline-big {stroke-width:16;stroke:none;opacity:0.1;fill:none;}
	.outline-small {stroke-width:8;stroke:none;opacity:0.2;fill:none;}
	.stroke-highlight {fill:none;stroke:none;opacity:0.2;}
       	.base-shadow 	{fill:black;opacity:75;}
	</style>
  <style
     id="style26-7"
     type="text/css">
	.specularity {opacity:0.5;}
	.low-specularity {opacity:0.25;}
	.full-specularity {opacity:1;}
	.black {fill:#000000;}
	.white {fill:#ffffff;}
	.outline-big {stroke-width:16;stroke:none;opacity:0.1;fill:none;}
	.outline-small {stroke-width:8;stroke:none;opacity:0.2;fill:none;}
	.stroke-highlight {fill:none;stroke:none;opacity:0.2;}
       	.base-shadow 	{fill:black;opacity:75;}
	</style>
  <style
     type="text/css"
     id="style26-9">
	.specularity {opacity:0.5;}
	.low-specularity {opacity:0.25;}
	.full-specularity {opacity:1;}
	.black {fill:#000000;}
	.white {fill:#ffffff;}
	.outline-big {stroke-width:16;stroke:none;opacity:0.1;fill:none;}
	.outline-small {stroke-width:8;stroke:none;opacity:0.2;fill:none;}
	.stroke-highlight {fill:none;stroke:none;opacity:0.2;}
       	.base-shadow 	{fill:black;opacity:75;}
	</style>
</svg>
